tools/download-figma-icons/icons/outlined-medium/solar-panel-stand.svg

<svg width="24" height="24" viewBox="0 0 24 24" fill="none" xmlns="http://www.w3.org/2000/svg">
<path fill-rule="evenodd" clip-rule="evenodd" d="M20.8206 9.00816C20.8064 9.00741 20.7951 8.99991 20.7809 8.99991H15.6449L17.0511 4.49995H22.2298L20.8206 9.00816ZM18.9486 14.9998H13.7699L15.1762 10.4999H20.3549L18.9486 14.9998ZM3.17704 10.4999H7.60575L6.19951 14.9998H1.77081L3.17704 10.4999ZM5.05202 4.49995H9.48073L8.07449 8.99991H3.64579L5.05202 4.49995ZM9.64497 8.99991L11.0512 4.49995H15.4807L14.0744 8.99991H9.64497ZM7.76999 14.9998L9.17622 10.4999H13.6057L12.1994 14.9998H7.76999ZM23.8543 3.30522C23.7126 3.11397 23.4891 2.99997 23.2498 2.99997H4.50002C4.17228 2.99997 3.88203 3.21297 3.78453 3.52646L0.0345675 15.5263C-0.0374318 15.7536 0.00456781 16.0018 0.146316 16.1946C0.287315 16.3866 0.511563 16.4998 0.75006 16.4998H9.74997V19.4998H6.5775C6.16275 19.4998 5.82751 19.8358 5.82751 20.2498C5.82751 20.6645 6.16275 20.9998 6.5775 20.9998H14.3399C14.7547 20.9998 15.0899 20.6645 15.0899 20.2498C15.0899 19.8358 14.7547 19.4998 14.3399 19.4998H11.25V16.4998H19.4999C19.8284 16.4998 20.1179 16.2868 20.2154 15.9733L23.9653 3.97346C24.0373 3.74621 23.9953 3.49796 23.8543 3.30522Z" fill="black"/>
</svg>

<svg width="24" height="24" viewBox="0 0 24 24" fill="none" xmlns="http://www.w3.org/2000/svg"><path fill-rule="evenodd" clip-rule="evenodd" d="M20.82 9.008c-.014 0-.025-.008-.04-.008h-5.135l1.406-4.5h5.179l-1.41 4.508ZM18.95 15h-5.18l1.407-4.5h5.179L18.949 15ZM3.177 10.5h4.429L6.2 15H1.77l1.407-4.5Zm1.875-6h4.429L8.074 9H3.646l1.406-4.5ZM9.645 9l1.406-4.5h4.43L14.074 9H9.645ZM7.77 15l1.406-4.5h4.43L12.199 15H7.77ZM23.854 3.305A.752.752 0 0 0 23.25 3H4.5a.75.75 0 0 0-.715.526l-3.75 12a.747.747 0 0 0 .715.974h9v3H6.577a.75.75 0 1 0 0 1.5h7.763a.75.75 0 1 0 0-1.5h-3.09v-3h8.25a.749.749 0 0 0 .715-.527l3.75-12a.75.75 0 0 0-.11-.668Z" fill="currentColor"/></svg>
